X: 32432
T: Piper's Whim, The
R: slip jig
M: 9/8
K: Gmixolydian
|:A|B2 G GDG dBG|B/c/dB gdB deg|B2 G GDG d2 G|A/B/cA fcA c2:|
A|B2 d gdB gdc|B2 d gdB deg|B/c/dB gdB gdB|A/B/cA fcA c2 A|
B2 d gdB g2 c|BGd gdB de/^f/g|bb/a/g a>g^f g2 e|f2 c A/B/cA fc||

